svg/calendar_month_outline.svg

<svg xmlns="http://www.w3.org/2000/svg" viewBox="0 0 24 24"><path d="M7 12h2v2H7zm14-6v14a2 2 0 0 1-2 2H5a2 2 0 0 1-2-2V6a2 2 0 0 1 2-2h1V2h2v2h8V2h2v2h1a2 2 0 0 1 2 2M5 8h14V6H5zm14 12V10H5v10zm-4-6v-2h2v2zm-4 0v-2h2v2zm-4 2h2v2H7zm8 2v-2h2v2zm-4 0v-2h2v2z"/></svg>

<?xml version="1.0" encoding="UTF-8"?><!DOCTYPE svg PUBLIC "-//W3C//DTD SVG 1.1//EN" "http://www.w3.org/Graphics/SVG/1.1/DTD/svg11.dtd"><svg xmlns="http://www.w3.org/2000/svg" xmlns:xlink="http://www.w3.org/1999/xlink" version="1.1" id="mdi-calendar-month-outline" width="24" height="24" viewBox="0 0 24 24"><path d="M7,12H9V14H7V12M21,6V20A2,2 0 0,1 19,22H5C3.89,22 3,21.1 3,20V6A2,2 0 0,1 5,4H6V2H8V4H16V2H18V4H19A2,2 0 0,1 21,6M5,8H19V6H5V8M19,20V10H5V20H19M15,14V12H17V14H15M11,14V12H13V14H11M7,16H9V18H7V16M15,18V16H17V18H15M11,18V16H13V18H11Z" /></svg>
